X:1
T:The Crucifixion of Christ
M:6/8
L:1/8
K:C
 z2 zD-G-F| DGF GAc| d3- d2 d| cAF G3/2 A/2 G|F/2-D/2 D2D-G-F| DGF GAc|\
 d3- d2 d| cAG FGA| G3- G2 G| ccc eed| c3- c2 d| cAF GAG|F/2-D/2 D2D-G-F|\
 DGF GAc| d3- d2 d| cAG FGA| G3 z2 z|
